web/dassets/images/authentication/img-auth-bg.svg

<svg width="405" height="809" viewBox="0 0 405 809" fill="none" xmlns="http://www.w3.org/2000/svg">
<path d="M-358.39 358.707L-293.914 294.23L-293.846 294.163H-172.545L-220.81 342.428L-233.272 354.889L-282.697 404.314L-276.575 410.453L0.316589 687.328L283.33 404.314L233.888 354.889L230.407 351.391L173.178 294.163H294.48L294.547 294.23L345.082 344.765L404.631 404.314L0.316589 808.629L-403.998 404.314L-358.39 358.707ZM0.316589 0L233.938 233.622H112.637L0.316589 121.301L-112.004 233.622H-233.305L0.316589 0Z" fill="#69C0FF"/>
<path d="M-516.39 358.707L-451.914 294.23L-451.846 294.163H-330.545L-378.81 342.428L-391.272 354.889L-440.697 404.314L-434.575 410.453L-157.683 687.328L125.33 404.314L75.8879 354.889L72.4068 351.391L15.1785 294.163H136.48L136.547 294.23L187.082 344.765L246.631 404.314L-157.683 808.629L-561.998 404.314L-516.39 358.707ZM-157.683 0L75.9383 233.622H-45.3627L-157.683 121.301L-270.004 233.622H-391.305L-157.683 0Z" fill="#D9F7BE"/>
<path d="M-647.386 358.707L-582.91 294.23L-582.842 294.163H-461.541L-509.806 342.428L-522.268 354.889L-571.693 404.314L-565.571 410.453L-288.68 687.328L-5.66624 404.314L-55.1082 354.889L-58.5893 351.391L-115.818 294.163H5.48342L5.5507 294.23L56.0858 344.765L115.635 404.314L-288.68 808.629L-692.994 404.314L-647.386 358.707ZM-288.68 0L-55.0578 233.622H-176.359L-288.68 121.301L-401 233.622H-522.301L-288.68 0Z" fill="#FFF1F0"/>
</svg>

<?xml version="1.0" encoding="utf-8"?>
<!-- Generator: Adobe Illustrator 27.5.0, SVG Export Plug-In . SVG Version: 6.00 Build 0)  -->
<svg version="1.1" id="Layer_1" xmlns="http://www.w3.org/2000/svg" xmlns:xlink="http://www.w3.org/1999/xlink" x="0px" y="0px"
	 viewBox="0 0 405 809" style="enable-background:new 0 0 405 809;" xml:space="preserve">
<style type="text/css">
	.st0{fill:#0E273C;}
	.st1{fill:#87CEFA;}
	.st2{fill:#BDB9BB;}
</style>
<path class="st0" d="M-358.4,358.7l64.5-64.5l0.1-0.1h121.3l-48.3,48.3l-12.5,12.5l-49.4,49.4l6.1,6.1L0.3,687.3l283-283l-49.4-49.4
	l-3.5-3.5l-57.2-57.2h121.3l0.1,0.1l50.5,50.5l59.5,59.5L0.3,808.6L-404,404.3L-358.4,358.7z M0.3,0l233.6,233.6H112.6L0.3,121.3
	L-112,233.6h-121.3L0.3,0z"/>
<path class="st1" d="M-506.4,358.7l64.5-64.5l0.1-0.1h121.3l-48.3,48.3l-12.5,12.5l-49.4,49.4l6.1,6.1l276.9,276.9l283-283
	l-49.4-49.4l-3.5-3.5l-57.2-57.2h121.3l0.1,0.1l50.5,50.5l59.5,59.5l-404.3,404.3L-552,404.3L-506.4,358.7z M-147.7,0L85.9,233.6
	H-35.4l-112.3-112.3L-260,233.6h-121.3L-147.7,0z"/>
<path class="st2" d="M-647.4,358.7l64.5-64.5l0.1-0.1h121.3l-48.3,48.3l-12.5,12.5l-49.4,49.4l6.1,6.1l276.9,276.9l283-283
	l-49.4-49.4l-3.5-3.5l-57.2-57.2H5.5l0.1,0.1l50.5,50.5l59.5,59.5l-404.3,404.3L-693,404.3L-647.4,358.7z M-288.7,0l233.6,233.6
	h-121.3l-112.3-112.3L-401,233.6h-121.3L-288.7,0z"/>
</svg>
